X: 4748
T:Na Ceannabhain Bhana
M:9/8
L:1/8
C:Trad.
S:IrTrad; Chris & Caitlin, 4/98
R:Slip Jig
A:Connemara
D:Paul McGrattan/Paul O'Shaughnessy: Within a Mile of Dublin
Z:Chris Corrigan (cc_cmf@mindlink.net
K:G
B2 G AGE GED |E/F/GE DEG A2 c|BAG AGE GED|  E/F/GE DEF G2 A :||:
Bdd edB BAG |Bdd edB A3|Bdd edB BAG |GED DEF G3 :|
